packages/astro-components-stencil/src/icons/unarchive.svg

<svg xmlns="http://www.w3.org/2000/svg" viewBox="0 0 24 24"><g xmlns="http://www.w3.org/2000/svg" id="unarchive" fill-rule="nonzero">
            <path d="M20.55 5.22l-1.39-1.68A1.51 1.51 0 0018 3H6c-.47 0-.88.21-1.15.55L3.46 5.22C3.17 5.57 3 6.01 3 6.5V19a2 2 0 002 2h14c1.1 0 2-.9 2-2V6.5c0-.49-.17-.93-.45-1.28zm-8.2 4.63L17.5 15H14v2h-4v-2H6.5l5.15-5.15c.19-.19.51-.19.7 0zM5.12 5l.82-1h12l.93 1H5.12z"/>
        </g></svg>

<svg width="24" height="24" viewBox="0 0 24 24" fill="none" xmlns="http://www.w3.org/2000/svg">
<path fill-rule="evenodd" clip-rule="evenodd" d="M20.55 5.22L19.16 3.54C18.88 3.21 18.47 3 18 3H6C5.53 3 5.12 3.21 4.85 3.55L3.46 5.22C3.17 5.57 3 6.01 3 6.5V19C3 20.1 3.89 21 5 21H19C20.1 21 21 20.1 21 19V6.5C21 6.01 20.83 5.57 20.55 5.22ZM12.35 9.85L17.5 15H14V17H10V15H6.5L11.65 9.85C11.84 9.66 12.16 9.66 12.35 9.85ZM5.94 4L5.12 5H18.87L17.94 4H5.94Z" fill="black"/>
</svg>
